!! 00000] TT[WS
!!!OTL: Xiu huadeng
!!!ARE: Asia, China,ˇShanxi Xixian
!! Ethnic Group: Han
!! WI, 251 (1)
!!!SCT: J0296
!!!YEM: Copyright 1995, estate of Helmut Schaffrath.
**kern
*ICvox
*Ivox
*M2/4
*k[f#]
*G:
{8g
8g
8g
8e
=1
8dd
16ee
16dd
4b
=2
8ee
16ee
16gg
8dd
16dd
16b
=3
8dd
4.a}
=4
{8dd
16a
16b
4dd
=5
8ee
16b
16a
4g
=6
8a
16a
16b
8g
8e
=7
2d}
=8
{16e
16g
16d
16e
4g
=9
8a
16g
16a
4b
=10
8a
16a
16b
16a
16f#
16e
16d
=11
16e
16g
16e
16d
4e}
=12
{8.dd
16ee
4dd
=13
8d
8g
16g
16e
8d
=14
8.dd
16b
8a
8b
=15
8g
8e
4d}
=16
{8g
16g
16a
8b
8g
=17
2a}
=18
{8ee
16ee
16gg
8.b
16dd
=19
16ee
16dd
16ee
16gg
4dd
=20
8dd
16dd
16b
16a
16b
8dd
=21
4b
16a
16g
8e
=22
2d}
==
!!!AGN: Xiaodiao. XÅshi, Sichun
!!!ONB: ESAC (Essen Associative Code) Database: CHINA
!!!AMT: simple duple
!!!AIN: vox
!!!EED: Helmut Schaffrath
!!!EEV: 1.0
*-
